; HEADER_BLOCK_START
; generated by OrcaSlicer 2.3.0 on 2026-01-20 at 13:11:32
; total layer number: 222
;_GP_TOTAL_LAYER_NUMBER_PLACEHOLDER
; filament_density: 1.04,1.04,1.04,1.04,1.04,1.27,1.27,1.27,1.04,1.27,1.27,1.27,1.27,1.27,1.04,1.04,1.04,1.04,1.04
; filament_diameter: 1.75,1.75,1.75,1.75,1.75,1.75,1.75,1.75,1.75,1.75,1.75,1.75,1.75,1.75,1.75,1.75,1.75,1.75,1.75
; max_z_height: 44.40
; HEADER_BLOCK_END

; THUMBNAIL_BLOCK_START

;
; THUMBNAIL_BLOCK_END

; THUMBNAIL_BLOCK_START

;
; THUMBNAIL_BLOCK_END

; external perimeters extrusion width = 0.40mm
; perimeters extrusion width = 0.40mm
; infill extrusion width = 0.40mm
; solid infill extrusion width = 0.40mm
; top infill extrusion width = 0.40mm
; first layer extrusion width = 0.40mm

; EXECUTABLE_BLOCK_START
M73 P0 R48
M201 X10000 Y10000 Z500 E5000
M203 X500 Y500 Z10 E60
M204 P10000 R1000 T10000
M205 X8.00 Y8.00 Z0.40 E5.00 ; sets the jerk limits, mm/sec
;TYPE:Custom
G90 ; use absolute coordinates
M83 ; extruder relative mode
M204 S10000 T1000
M104 S210 ; set extruder temp
M140 S70 ; set bed temp
G28 ; home all
G29 ;
G1 Y1.0 Z0.3 F1000 ; move print head up
G1 E30 F1500
M190 S70 ; wait for bed temp
M109 S210 ; wait for extruder temp
G92 E0.0
; initial load
G1 X205.0 E19 F1000
G1 Y1.6
G1 X5.0 E19 F1000
G92 E0.0
; intro line
G1 Y2.0 Z0.2 F1000
G1 X65.0 E9.0 F1000
G1 X105.0 E12.5 F1000
M73 P1 R48
G92 E0.0
G90
G21
M83 ; use relative distances for extrusion
; Filament gcode
M182 A100 B0 C0    ;
T0
M106 S0
;LAYER_CHANGE
;Z:0.2
;HEIGHT:0.2
;BEFORE_LAYER_CHANGE
;0.2

G92 E0 ;
;AFTER_LAYER_CHANGE
;0.2

;_SET_FAN_SPEED_CHANGING_LAYER
M204 S500
G1 E-7 F3600
G1 X144.509 Y136.98 F9000
G1 Z.9
G1 Z.2
G1 E7 F3600
;TYPE:Skirt
;WIDTH:0.4
G1 F3000
G1 X145.344 Y136.228 E.03338
G1 X146.3 Y135.528 E.03518
G1 X147.203 Y134.995 E.03113
G1 X148.222 Y134.519 E.03338
G1 X149.229 Y134.162 E.03174
G1 X150.36 Y133.883 E.03457
G1 X151.473 Y133.726 E.03338
G1 X152.541 Y133.679 E.03174
G1 X153.703 Y133.743 E.03457
G1 X154.814 Y133.918 E.03338
G1 X155.829 Y134.18 E.03113
G1 X156.886 Y134.563 E.03338
G1 X157.833 Y135.014 E.03113
G1 X158.847 Y135.626 E.03518
G1 X159.656 Y136.228 E.02994
G1 X160.519 Y137.009 E.03457
G1 X161.198 Y137.755 E.02994
G1 X161.897 Y138.686 E.03457
G1 X162.421 Y139.547 E.02993
G1 X162.937 Y140.614 E.03518
G1 X163.279 Y141.54 E.02932
G1 X163.582 Y142.686 E.03518
G1 X163.761 Y143.837 E.03459
G1 X163.821 Y145.02 E.03518
G1 X163.774 Y146.027 E.02994
G1 X163.609 Y147.18 E.03457
G1 X163.338 Y148.271 E.03338
G1 X162.981 Y149.279 E.03174
G1 X162.486 Y150.333 E.03457
G1 X161.908 Y151.297 E.03338
G1 X161.198 Y152.246 E.03518
G1 X160.476 Y153.034 E.03173
G1 X159.746 Y153.698 E.02932
G1 X158.797 Y154.408 E.03518
G1 X157.85 Y154.977 E.03278
G1 X156.886 Y155.437 E.03173
G1 X155.829 Y155.82 E.03338
G1 X154.814 Y156.082 E.03112
G1 X153.703 Y156.257 E.03338
G1 X152.48 Y156.321 E.03638
G1 X151.297 Y156.257 E.03518
G1 X150.186 Y156.082 E.03338
G1 X149.171 Y155.82 E.03113
G1 X148.114 Y155.437 E.03338
G1 X147.047 Y154.921 E.03518
G1 X146.153 Y154.374 E.03113
G1 X144.509 Y153.019 E.06324
G1 X143.815 Y152.261 E.03053
G1 X143.126 Y151.347 E.03398
G1 X142.523 Y150.35 E.03458
G1 X142.071 Y149.405 E.03113
G1 X141.68 Y148.329 E.03398
G1 X141.418 Y147.314 E.03112
G1 X141.237 Y146.143 E.03518
G1 X141.179 Y144.98 E.03458
G1 X141.239 Y143.837 E.03398
G1 X141.418 Y142.686 E.03458
G1 X141.686 Y141.651 E.03174
G1 X142.063 Y140.614 E.03277
G1 X142.523 Y139.649 E.03173
G1 X143.126 Y138.653 E.03458
G1 X143.802 Y137.754 E.03338
G1 X144.486 Y137.006 E.03009
G1 X144.749 Y137.247 F9000
G1 F3000
G1 X144.76 Y137.235 E.00047
G1 X145.574 Y136.501 E.03255
G1 X146.5 Y135.824 E.03407
G1 X147.368 Y135.311 E.02993
G1 X148.361 Y134.848 E.03255
G1 X149.328 Y134.505 E.03044
G1 X150.425 Y134.234 E.03355
G1 X151.51 Y134.081 E.03255
G1 X152.535 Y134.036 E.03044
G1 X153.629 Y134.094 E.03254
G1 X154.746 Y134.269 E.03356
G1 X155.722 Y134.52 E.02992
G1 X156.752 Y134.895 E.03255
G1 X157.662 Y135.328 E.02992
G1 X158.645 Y135.92 E.03407
G1 X159.427 Y136.501 E.02892
G1 X160.265 Y137.26 E.03356
G1 X160.921 Y137.979 E.02892
G1 X161.599 Y138.883 E.03355
G1 X162.106 Y139.715 E.02891
G1 X162.605 Y140.748 E.03407
G1 X162.938 Y141.645 E.0284
G1 X163.231 Y142.754 E.03407
G1 X163.406 Y143.871 E.03357
G1 X163.464 Y145.017 E.03407
G1 X163.419 Y145.99 E.02892
G1 X163.259 Y147.109 E.03356
G1 X162.995 Y148.173 E.03255
G1 X162.652 Y149.139 E.03044
G1 X162.172 Y150.162 E.03356
G1 X161.608 Y151.102 E.03255
G1 X160.921 Y152.021 E.03407
G1 X160.228 Y152.777 E.03043
G1 X159.521 Y153.421 E.0284
G1 X158.602 Y154.108 E.03407
G1 X157.677 Y154.664 E.03204
G1 X156.752 Y155.105 E.03043
G1 X155.722 Y155.48 E.03255
G1 X154.746 Y155.731 E.02992
G1 X153.663 Y155.902 E.03255
G1 X152.483 Y155.964 E.03509
G1 X151.337 Y155.902 E.03407
G1 X150.254 Y155.731 E.03255
G1 X149.278 Y155.48 E.02992
G1 X148.248 Y155.105 E.03255
G1 X147.215 Y154.606 E.03407
G1 X146.355 Y154.08 E.02993
G1 X144.759 Y152.765 E.06139
G1 X144.09 Y152.034 E.02942
G1 X143.42 Y151.145 E.03306
G1 X142.836 Y150.177 E.03356
G1 X142.401 Y149.268 E.02992
G1 X142.02 Y148.222 E.03306
G1 X141.769 Y147.246 E.02992
G1 X141.593 Y146.112 E.03407
G1 X141.536 Y144.983 E.03357
G1 X141.594 Y143.871 E.03306
G1 X141.769 Y142.754 E.03356
G1 X142.026 Y141.761 E.03044
G1 X142.395 Y140.748 E.03203
G1 X142.836 Y139.823 E.03043
G1 X143.42 Y138.855 E.03356
G1 X144.079 Y137.979 E.03255
G1 X144.725 Y137.273 E.02841
G1 X145.001 Y137.501 F9000
G1 F3000
G1 X145.01 Y137.49 E.00042
G1 X145.803 Y136.775 E.03171
G1 X146.7 Y136.12 E.03296
G1 X148.501 Y135.176 E.06037
G1 X149.426 Y134.849 E.02915
G1 X150.49 Y134.585 E.03254
G1 X152.528 Y134.393 E.0608
G1 X153.623 Y134.453 E.03254
G1 X154.678 Y134.619 E.03172
G1 X156.619 Y135.226 E.06037
G1 X157.492 Y135.641 E.02872
G1 X158.443 Y136.214 E.03296
G1 X160.01 Y137.51 E.06037
G1 X161.301 Y139.08 E.06037
G1 X162.274 Y140.882 E.06078
G1 X162.881 Y142.822 E.06037
G1 X163.05 Y143.905 E.03255
G1 X163.107 Y145.014 E.03296
G1 X162.909 Y147.038 E.06037
G1 X162.324 Y149 E.06079
G1 X161.859 Y149.992 E.03254
G1 X161.309 Y150.908 E.03172
G1 X160.643 Y151.796 E.03296
G1 X159.98 Y152.52 E.02914
G1 X158.408 Y153.809 E.06037
G1 X156.619 Y154.774 E.06037
G1 X154.678 Y155.381 E.06037
G1 X153.623 Y155.547 E.03172
G1 X152.486 Y155.607 E.03379
G1 X151.377 Y155.547 E.03296
G1 X150.322 Y155.381 E.03172
G1 X148.381 Y154.774 E.06037
G1 X147.382 Y154.29 E.03296
G1 X146.557 Y153.786 E.02872
G1 X145.01 Y152.51 E.05954
G1 X143.714 Y150.943 E.06037
G1 X142.731 Y149.131 E.0612
G1 X142.119 Y147.178 E.06078
G1 X141.949 Y146.081 E.03297
G1 X141.893 Y144.986 E.03255
G1 X141.95 Y143.905 E.03213
G1 X142.119 Y142.822 E.03255
G1 X142.726 Y140.881 E.06037
G1 X143.148 Y139.996 E.02914
G1 X143.714 Y139.057 E.03255
G1 X144.979 Y137.528 E.05892
G1 X145.252 Y137.754 F9000
G1 F3000
G1 X145.26 Y137.745 E.00036
G1 X146.033 Y137.048 E.03088
G1 X146.899 Y136.416 E.03185
G1 X148.64 Y135.505 E.05834
G1 X150.555 Y134.937 E.0593
G1 X152.522 Y134.75 E.05867
G1 X153.582 Y134.808 E.03152
G1 X154.61 Y134.97 E.03088
G1 X156.485 Y135.557 E.05834
G1 X158.241 Y136.509 E.0593
G1 X159.755 Y137.76 E.05834
G1 X161.004 Y139.277 E.05834
G1 X161.943 Y141.015 E.05866
G1 X162.53 Y142.89 E.05833
G1 X162.695 Y143.94 E.03153
G1 X162.75 Y145.011 E.03185
G1 X162.559 Y146.967 E.05834
G1 X161.995 Y148.86 E.05867
G1 X161.545 Y149.822 E.03152
G1 X161.009 Y150.713 E.03088
G1 X159.732 Y152.263 E.05963
G1 X158.213 Y153.51 E.05834
G1 X156.485 Y154.443 E.05834
G1 X154.61 Y155.03 E.05833
G1 X153.582 Y155.192 E.03089
G1 X152.489 Y155.25 E.0325
G1 X151.418 Y155.192 E.03185
G1 X150.39 Y155.03 E.03088
G1 X148.515 Y154.443 E.05834
G1 X146.759 Y153.491 E.0593
G1 X145.26 Y152.255 E.05769
G1 X144.009 Y150.741 E.05834
G1 X143.061 Y148.995 E.05898
G1 X142.47 Y147.11 E.05866
G1 X142.304 Y146.05 E.03186
G1 X142.25 Y144.989 E.03153
G1 X142.305 Y143.939 E.03121
G1 X142.47 Y142.89 E.03153
G1 X143.057 Y141.015 E.05834
G1 X144.009 Y139.259 E.0593
G1 X145.23 Y137.781 E.05694
G1 X145.504 Y138.007 F9000
G1 F3000
G1 X145.51 Y137.999 E.0003
G1 X146.262 Y137.322 E.03005
G1 X147.099 Y136.712 E.03074
G1 X148.78 Y135.834 E.0563
G1 X150.62 Y135.288 E.05699
G1 X152.516 Y135.107 E.05655
G1 X153.542 Y135.162 E.0305
G1 X154.542 Y135.32 E.03005
G1 X156.351 Y135.888 E.0563
G1 X158.038 Y136.803 E.057
G1 X159.501 Y138.01 E.05631
M73 P1 R47
G1 X160.706 Y139.475 E.0563
G1 X161.612 Y141.149 E.05654
G1 X162.18 Y142.958 E.0563
G1 X162.339 Y143.974 E.03052
G1 X162.393 Y145.008 E.03074
G1 X162.209 Y146.895 E.05631
G1 X161.666 Y148.721 E.05654
G1 X161.231 Y149.651 E.0305
G1 X160.71 Y150.519 E.03005
G1 X159.484 Y152.006 E.05723
G1 X158.019 Y153.21 E.0563
G1 X156.351 Y154.112 E.0563
G1 X154.542 Y154.68 E.0563
G1 X153.542 Y154.838 E.03005
G1 X152.492 Y154.893 E.03121
G1 X151.458 Y154.838 E.03074
G1 X150.458 Y154.68 E.03005
G1 X148.649 Y154.112 E.05631
G1 X146.962 Y153.197 E.05699
G1 X145.51 Y152.001 E.05584
G1 X144.303 Y150.538 E.05631
G1 X143.391 Y148.858 E.05677
G1 X142.82 Y147.042 E.05653
G1 X142.66 Y146.019 E.03075
G1 X142.607 Y144.992 E.03051
G1 X142.661 Y143.974 E.03028
G1 X142.82 Y142.958 E.03051
G1 X143.388 Y141.149 E.05631
G1 X144.303 Y139.462 E.05699
G1 X145.482 Y138.034 E.05497
G1 X145.763 Y138.274 F9000
G1 F3000
G1 X145.883 Y138.134 E.00549
G1 X147.314 Y136.998 E.05426
G1 X148.167 Y136.506 E.02923
G1 X149.078 Y136.099 E.02962
G1 X150.853 Y135.608 E.05469
G1 X151.83 Y135.488 E.02923
G1 X152.823 Y135.47 E.02949
G1 X154.654 Y135.711 E.05483
G1 X156.521 Y136.354 E.05863
G1 X157.977 Y137.194 E.0499
G1 X159.366 Y138.383 E.05428
G1 X160.502 Y139.814 E.05426
G1 X160.998 Y140.675 E.0295
G1 X161.399 Y141.574 E.02922
G1 X161.892 Y143.349 E.05469
G1 X162.034 Y145.176 E.05442
G1 X161.825 Y146.992 E.05427
G1 X161.519 Y148.096 E.034
G1 X161.209 Y148.883 E.02512
G1 X160.306 Y150.477 E.05441
G1 X159.7 Y151.252 E.02922
G1 X159.01 Y151.967 E.0295
G1 X157.549 Y153.089 E.05469
G1 X155.913 Y153.904 E.05427
G1 X154.151 Y154.392 E.05427
G1 X152.324 Y154.534 E.05441
G1 X150.508 Y154.325 E.05427
G1 X149.544 Y154.066 E.02964
G1 X148.479 Y153.646 E.03401
G1 X147.023 Y152.806 E.0499
G1 X145.532 Y151.51 E.05865
G1 X144.411 Y150.049 E.05467
G1 X143.933 Y149.188 E.02923
G1 X143.543 Y148.27 E.02962
G1 X143.083 Y146.496 E.05441
G1 X142.966 Y144.824 E.04978
G1 X143.174 Y143.013 E.05412
G1 X143.726 Y141.266 E.05441
G1 X144.237 Y140.24 E.03401
G1 X144.686 Y139.534 E.02485
G1 X145.74 Y138.301 E.04816
G1 X146.01 Y138.531 F9000
G1 F3000
G1 X146.127 Y138.395 E.00533
G1 X147.504 Y137.301 E.05223
G1 X148.332 Y136.822 E.0284
G1 X149.209 Y136.432 E.02852
G1 X150.909 Y135.96 E.05238
G1 X152.817 Y135.827 E.05679
G1 X154.568 Y136.058 E.05243
G1 X156.376 Y136.68 E.05678
G1 X157.767 Y137.483 E.04769
G1 X159.105 Y138.627 E.05225
G1 X160.199 Y140.004 E.05223
G1 X161.068 Y141.708 E.05679
G1 X161.539 Y143.408 E.05238
G1 X161.677 Y145.164 E.0523
G1 X161.477 Y146.912 E.05224
G1 X160.884 Y148.735 E.05691
G1 X160.017 Y150.267 E.05229
G1 X158.762 Y151.711 E.05679
G1 X157.363 Y152.785 E.05238
G1 X155.788 Y153.569 E.05224
G1 X154.092 Y154.039 E.05224
G1 X152.337 Y154.177 E.05229
G1 X150.589 Y153.977 E.05224
G1 X149.661 Y153.728 E.02853
G1 X148.624 Y153.32 E.03309
G1 X147.233 Y152.517 E.04769
G1 X145.789 Y151.262 E.0568
G1 X144.715 Y149.863 E.05237
G1 X144.252 Y149.026 E.0284
G1 X143.876 Y148.142 E.02851
G1 X143.435 Y146.437 E.05229
G1 X143.323 Y144.836 E.04765
G1 X143.522 Y143.09 E.05218
G1 X144.052 Y141.411 E.05229
G1 X144.981 Y139.736 E.05684
G1 X145.987 Y138.558 E.04601
; printing object Cilindro id:4688247215324737701 copy 0
G1 E-7 F3600
;WIPE_START
G1 F3000
G1 X146.127 Y138.395
G1 X147.504 Y137.301
G1 X148.332 Y136.822
G1 X149.209 Y136.432
G1 X150.909 Y135.96
G1 X152.817 Y135.827
G1 X154.568 Y136.058
G1 X156.376 Y136.68
G1 X157.767 Y137.483
G1 X159.105 Y138.627
G1 X159.969 Y139.714
;WIPE_END
G1 X160.923 Y145.402 Z.9 F9000
G1 Z.2
G1 E7 F3600
;TYPE:Inner wall
;WIDTH:0.399999
G1 F1500
G1 X160.879 Y146.031 E.01874
G1 X160.759 Y146.751 E.02167
G1 X160.481 Y147.753 E.03086
G1 X160.213 Y148.434 E.02173
G1 X159.885 Y149.091 E.0218
G1 X159.415 Y149.842 E.0263
G1 X158.872 Y150.538 E.02623
G1 X158.256 Y151.176 E.02632
G1 X157.7 Y151.651 E.02172
G1 X156.972 Y152.161 E.02638
G1 X156.335 Y152.521 E.02172
G1 X155.525 Y152.882 E.02632
G1 X154.683 Y153.155 E.02629
G1 X153.968 Y153.314 E.02174
G1 X153.087 Y153.422 E.02637
G1 X152.355 Y153.441 E.02174
G1 X151.469 Y153.379 E.02636
G1 X150.745 Y153.258 E.0218
G1 X150.034 Y153.074 E.0218
G1 X149.201 Y152.771 E.0263
G1 X148.405 Y152.383 E.0263
G1 X147.781 Y152 E.02174
G1 X147.072 Y151.466 E.02637
G1 X146.53 Y150.97 E.0218
G1 X146.034 Y150.428 E.0218
G1 X145.501 Y149.721 E.0263
G1 X145.046 Y148.964 E.02623
G1 X144.672 Y148.16 E.02632
G1 X144.426 Y147.466 E.02187
G1 X144.277 Y146.91 E.01708
G1 X144.078 Y145.579 E.03996
G1 X144.059 Y144.855 E.02152
G1 X144.121 Y143.969 E.02637
G1 X144.242 Y143.245 E.02179
G1 X144.426 Y142.533 E.02182
G1 X144.731 Y141.697 E.02643
G1 X144.974 Y141.176 E.01708
G1 X145.589 Y140.152 E.03546
G1 X146.031 Y139.575 E.02159
G1 X146.637 Y138.925 E.02638
G1 X147.185 Y138.44 E.02173
G1 X147.902 Y137.92 E.02629
G1 X148.668 Y137.478 E.02626
G1 X149.474 Y137.119 E.02621
G1 X150.317 Y136.845 E.02632
G1 X151.032 Y136.686 E.02173
G1 X151.911 Y136.578 E.0263
G1 X152.797 Y136.563 E.02631
G1 X153.527 Y136.62 E.02173
G1 X154.404 Y136.775 E.02645
G1 X154.959 Y136.924 E.01707
G1 X156.076 Y137.353 E.03553
G1 X156.589 Y137.614 E.01708
G1 X157.342 Y138.084 E.02637
G1 X158.04 Y138.63 E.02632
G1 X158.571 Y139.134 E.02173
G1 X159.154 Y139.804 E.02637
G1 X159.579 Y140.4 E.02172
G1 X160.022 Y141.168 E.02632
G1 X160.382 Y141.977 E.02629
G1 X160.615 Y142.671 E.02174
G1 X160.732 Y143.179 E.01549
G1 X160.862 Y143.899 E.02172
G1 X160.923 Y144.628 E.02172
G1 X160.938 Y145.052 E.01261
G1 X160.984 Y144.826 F9000
;TYPE:Outer wall
G1 F1500
G1 X161.293 Y144.99
G1 X161.298 Y145.154 E.00487
G1 X161.234 Y146.073 E.02737
G1 X161.108 Y146.829 E.02274
G1 X160.82 Y147.866 E.03197
G1 X160.539 Y148.579 E.02275
G1 X160.197 Y149.266 E.02278
G1 X159.708 Y150.047 E.02737
G1 X159.141 Y150.773 E.02734
G1 X158.501 Y151.436 E.02738
G1 X157.918 Y151.934 E.02274
G1 X157.162 Y152.463 E.0274
G1 X156.496 Y152.84 E.02274
G1 X155.653 Y153.215 E.02738
G1 X154.777 Y153.5 E.02736
G1 X154.029 Y153.666 E.02276
G1 X153.113 Y153.778 E.02738
G1 X152.347 Y153.798 E.02276
G1 X151.427 Y153.734 E.02738
G1 X150.67 Y153.608 E.02278
G1 X149.928 Y153.415 E.02278
G1 X149.062 Y153.1 E.02737
G1 X148.233 Y152.696 E.02736
G1 X147.58 Y152.296 E.02276
G1 X146.843 Y151.741 E.02738
G1 X146.278 Y151.222 E.02277
G1 X145.759 Y150.657 E.02278
G1 X145.205 Y149.921 E.02737
G1 X144.73 Y149.131 E.02734
G1 X144.341 Y148.296 E.02738
G1 X144.084 Y147.572 E.02279
G1 X143.927 Y146.983 E.0181
G1 X143.722 Y145.611 E.04121
G1 X143.702 Y144.847 E.02268
G1 X143.766 Y143.927 E.02739
G1 X143.892 Y143.17 E.02277
G1 X144.085 Y142.427 E.02279
G1 X144.4 Y141.56 E.0274
G1 X144.658 Y141.008 E.0181
G1 X145.293 Y139.951 E.03662
G1 X145.759 Y139.344 E.0227
G1 X146.388 Y138.669 E.02739
G1 X146.962 Y138.162 E.02275
G1 X147.707 Y137.62 E.02736
G1 X148.506 Y137.159 E.02738
G1 X149.346 Y136.785 E.02732
G1 X150.223 Y136.5 E.02738
G1 X150.971 Y136.334 E.02275
G1 X151.886 Y136.222 E.02737
G1 X152.808 Y136.206 E.02737
G1 X153.572 Y136.266 E.02275
G1 X154.481 Y136.426 E.02742
G1 X155.07 Y136.584 E.01809
G1 X156.222 Y137.026 E.03664
G1 X156.765 Y137.303 E.0181
G1 X157.547 Y137.792 E.02738
G1 X158.274 Y138.359 E.02738
G1 X158.83 Y138.887 E.02275
G1 X159.435 Y139.583 E.02739
G1 X159.88 Y140.207 E.02274
G1 X160.341 Y141.005 E.02738
G1 X160.716 Y141.847 E.02736
G1 X160.959 Y142.574 E.02276
G1 X161.08 Y143.099 E.016
G1 X161.216 Y143.853 E.02273
G1 X161.28 Y144.616 E.02273
G1 X161.28 Y144.64 E.00073
G1 X161.265 Y145.008
G1 E-7 F3600
;WIPE_START
G1 F1500
G1 X161.298 Y145.154
G1 X161.234 Y146.073
G1 X161.108 Y146.829
G1 X160.82 Y147.866
G1 X160.539 Y148.579
G1 X160.197 Y149.266
G1 X159.708 Y150.047
G1 X159.141 Y150.773
G1 X158.501 Y151.436
G1 X157.918 Y151.934
G1 X157.162 Y152.463
G1 X156.496 Y152.84
G1 X155.653 Y153.215
