; HEADER_BLOCK_START
; generated by OrcaSlicer 2.3.0 on 2026-01-25 at 15:50:50
; total layer number: 153
;_GP_TOTAL_LAYER_NUMBER_PLACEHOLDER
; filament_density: 1.04,1.04,1.04,1.04,1.04,1.27,1.27,1.27,1.04,1.27,1.27,1.27,1.27,1.27,1.04,1.04,1.04,1.04,1.04
; filament_diameter: 1.75,1.75,1.75,1.75,1.75,1.75,1.75,1.75,1.75,1.75,1.75,1.75,1.75,1.75,1.75,1.75,1.75,1.75,1.75
; max_z_height: 30.60
; HEADER_BLOCK_END

; THUMBNAIL_BLOCK_START

;
; THUMBNAIL_BLOCK_END

; THUMBNAIL_BLOCK_START

;
; THUMBNAIL_BLOCK_END

; external perimeters extrusion width = 0.40mm
; perimeters extrusion width = 0.40mm
; infill extrusion width = 0.40mm
; solid infill extrusion width = 0.40mm
; top infill extrusion width = 0.40mm
; first layer extrusion width = 0.40mm

; EXECUTABLE_BLOCK_START
M73 P0 R52
M201 X10000 Y10000 Z500 E5000
M203 X500 Y500 Z10 E60
M204 P10000 R1000 T10000
M205 X8.00 Y8.00 Z0.40 E5.00 ; sets the jerk limits, mm/sec
;TYPE:Custom
G90 ; use absolute coordinates
M83 ; extruder relative mode
M204 S10000 T1000
M104 S210 ; set extruder temp
M140 S70 ; set bed temp
G28 ; home all
G29 ;
G1 Y-4.0 Z0.3 F1000 ; move print head up
G1 E30 F1500
M190 S70 ; wait for bed temp
M109 S210 ; wait for extruder temp
G92 E0.0
; initial load
G1 X205.0 E19 F1000
G1 Y1.6
G1 X5.0 E19 F1000
G92 E0.0
; intro line
G1 Y2.0 Z0.2 F1000
G1 X65.0 E9.0 F1000
G1 X105.0 E12.5 F1000
G92 E0.0
G90
G21
M83 ; use relative distances for extrusion
; Filament gcode
M182 A100 B0 C0    ;
T0
M106 S0
;LAYER_CHANGE
;Z:0.2
;HEIGHT:0.2
;BEFORE_LAYER_CHANGE
;0.2

G92 E0 ;
;AFTER_LAYER_CHANGE
;0.2

;_SET_FAN_SPEED_CHANGING_LAYER
M204 S500
G1 E-7 F3600
M73 P1 R52
G1 X135.592 Y128.237 F9000
G1 Z.9
M73 P1 R51
G1 Z.2
G1 E7 F3600
;TYPE:Skirt
;WIDTH:0.4
G1 F3000
G1 X136.363 Y127.605 E.02959
G1 X137.25 Y127.429 E.02687
G1 X167.75 Y127.429 E.90558
G1 X169.04 Y127.82 E.04002
G1 X169.895 Y128.863 E.04002
G1 X170.071 Y129.75 E.02687
G1 X170.071 Y160.25 E.90558
G1 X169.68 Y161.54 E.04002
G1 X168.637 Y162.395 E.04002
G1 X167.75 Y162.571 E.02687
G1 X137.25 Y162.571 E.90558
G1 X135.96 Y162.18 E.04002
G1 X135.105 Y161.137 E.04002
G1 X134.929 Y160.25 E.02687
G1 X134.929 Y129.75 E.90558
G1 X135.32 Y128.46 E.04002
G1 X135.565 Y128.26 E.00939
G1 X135.714 Y128.557 F9000
G1 F3000
G1 X137.25 Y127.786 E.05102
G1 X167.75 Y127.786 E.90558
G1 X168.924 Y128.176 E.03674
G1 X169.714 Y129.75 E.05229
G1 X169.714 Y160.25 E.90558
G1 X169.324 Y161.424 E.03674
G1 X167.75 Y162.214 E.05229
G1 X137.25 Y162.214 E.90558
G1 X136.076 Y161.824 E.03674
G1 X135.286 Y160.25 E.05229
G1 X135.286 Y129.75 E.90558
G1 X135.676 Y128.576 E.03674
G1 X135.683 Y128.572 E.00022
G1 X136.031 Y128.703 F9000
G1 F3000
G1 X137.25 Y128.143 E.03984
G1 X167.75 Y128.143 E.90558
G1 X168.797 Y128.531 E.03314
G1 X169.357 Y129.75 E.03984
G1 X169.357 Y160.25 E.90558
G1 X168.969 Y161.297 E.03314
G1 X167.75 Y161.857 E.03984
G1 X137.25 Y161.857 E.90558
G1 X136.203 Y161.469 E.03314
G1 X135.643 Y160.25 E.03984
G1 X135.643 Y129.75 E.90558
G1 X136.019 Y128.736 E.0321
G1 X136.369 Y128.885 F9000
G1 F3000
G1 X136.384 Y128.849 E.00118
G1 X137.25 Y128.5 E.02771
G1 X167.75 Y128.5 E.90558
G1 X168.651 Y128.884 E.02909
G1 X169 Y129.75 E.02771
G1 X169 Y160.25 E.90558
G1 X168.616 Y161.151 E.02909
G1 X167.75 Y161.5 E.02771
G1 X137.25 Y161.5 E.90558
G1 X136.349 Y161.116 E.02909
G1 X136 Y160.25 E.02771
G1 X136 Y129.75 E.90558
G1 X136.355 Y128.918 E.02686
G1 X136.697 Y129.095 F9000
G1 F3000
G1 X136.735 Y129.021 E.00247
G1 X137.25 Y128.857 E.01605
G1 X167.75 Y128.857 E.90558
G1 X168.479 Y129.235 E.02438
G1 X168.643 Y129.75 E.01605
G1 X168.643 Y160.25 E.90558
G1 X168.265 Y160.979 E.02438
G1 X167.75 Y161.143 E.01605
G1 X137.25 Y161.143 E.90558
G1 X136.521 Y160.765 E.02438
G1 X136.357 Y160.25 E.01605
G1 X136.357 Y129.75 E.90558
G1 X136.681 Y129.126 E.02087
G1 X137.01 Y129.455 F9000
G1 F3000
G1 X137.25 Y129.214 E.01009
G1 X167.75 Y129.214 E.90558
G1 X168.286 Y129.75 E.02249
G1 X168.286 Y160.25 E.90558
G1 X167.75 Y160.786 E.02249
G1 X137.25 Y160.786 E.90558
G1 X136.714 Y160.25 E.02249
G1 X136.714 Y129.75 E.90558
G1 X136.985 Y129.479 E.01136
G1 X137.163 Y129.658 F9000
G1 F3000
G1 X137.25 Y129.571 E.00363
G1 X167.75 Y129.571 E.90558
G1 X167.929 Y129.75 E.0075
G1 X167.929 Y160.25 E.90558
G1 X167.75 Y160.429 E.0075
G1 X137.25 Y160.429 E.90558
G1 X137.071 Y160.25 E.0075
G1 X137.071 Y129.75 E.90558
G1 X137.139 Y129.683 E.00282
; printing object Cubo id:26242426 copy 0
G1 E-7 F3600
;WIPE_START
G1 F3000
G1 X137.25 Y129.571
G1 X153.093 Y129.571
;WIPE_END
G1 X158.623 Y141.73 Z.9 F9000
G1 X166.793 Y159.693 Z.9
G1 Z.2
G1 E7 F3600
;TYPE:Inner wall
;WIDTH:0.399999
G1 F1500
G1 X137.807 Y159.693 E.86063
G1 X137.807 Y130.307 E.8725
G1 X167.193 Y130.307 E.8725
G1 X167.193 Y159.693 E.8725
G1 X167.143 Y159.693 E.00148
G1 X167.375 Y159.747 F9000
;TYPE:Outer wall
G1 F1500
G1 X167.55 Y160.05
G1 X137.45 Y160.05 E.89371
G1 X137.45 Y129.95 E.89371
G1 X167.55 Y129.95 E.89371
M73 P2 R51
G1 X167.55 Y159.7 E.88331
G1 X167.482 Y160.032
G1 E-7 F3600
;WIPE_START
G1 F1500
G1 X151.551 Y159.886
;WIPE_END
G1 X157.548 Y147.951 Z.9 F9000
G1 X166.36 Y130.414 Z.9
G1 Z.2
G1 E7 F3600
;TYPE:Bottom surface
;WIDTH:0.402097
M106 S0
G1 X166.925 Y130.98 E.02389
G1 X166.925 Y131.488 E.01517
G1 X166.012 Y130.575 E.03856
G1 X165.504 Y130.575 E.01517
G1 X166.925 Y131.996 E.06001
G1 X166.925 Y132.504 E.01517
G1 X164.996 Y130.575 E.08146
G1 X164.488 Y130.575 E.01517
G1 X166.925 Y133.012 E.10292
G1 X166.925 Y133.52 E.01517
G1 X163.98 Y130.575 E.12437
G1 X163.472 Y130.575 E.01517
G1 X166.925 Y134.028 E.14583
G1 X166.925 Y134.535 E.01517
G1 X162.965 Y130.575 E.16728
G1 X162.457 Y130.575 E.01517
G1 X166.925 Y135.043 E.18874
G1 X166.925 Y135.551 E.01517
G1 X161.949 Y130.575 E.21019
G1 X161.441 Y130.575 E.01517
G1 X166.925 Y136.059 E.23164
G1 X166.925 Y136.567 E.01517
G1 X160.933 Y130.575 E.2531
G1 X160.425 Y130.575 E.01517
G1 X166.925 Y137.075 E.27455
G1 X166.925 Y137.583 E.01517
G1 X159.917 Y130.575 E.29601
G1 X159.409 Y130.575 E.01517
G1 X166.925 Y138.091 E.31746
G1 X166.925 Y138.599 E.01517
G1 X158.901 Y130.575 E.33891
G1 X158.393 Y130.575 E.01517
G1 X166.925 Y139.107 E.36037
G1 X166.925 Y139.615 E.01517
G1 X157.885 Y130.575 E.38182
G1 X157.377 Y130.575 E.01517
G1 X166.925 Y140.123 E.40328
G1 X166.925 Y140.631 E.01517
G1 X156.869 Y130.575 E.42473
G1 X156.361 Y130.575 E.01517
G1 X166.925 Y141.139 E.44619
G1 X166.925 Y141.647 E.01517
G1 X155.853 Y130.575 E.46764
G1 X155.345 Y130.575 E.01517
G1 X166.925 Y142.155 E.48909
G1 X166.925 Y142.663 E.01517
G1 X154.837 Y130.575 E.51055
G1 X154.329 Y130.575 E.01517
G1 X166.925 Y143.171 E.532
G1 X166.925 Y143.679 E.01517
G1 X153.821 Y130.575 E.55346
G1 X153.313 Y130.575 E.01517
G1 X166.925 Y144.187 E.57491
G1 X166.925 Y144.695 E.01517
G1 X152.805 Y130.575 E.59636
G1 X152.298 Y130.575 E.01517
G1 X166.925 Y145.202 E.61782
G1 X166.925 Y145.71 E.01517
G1 X151.79 Y130.575 E.63927
G1 X151.282 Y130.575 E.01517
G1 X166.925 Y146.218 E.66073
G1 X166.925 Y146.726 E.01517
G1 X150.774 Y130.575 E.68218
G1 X150.266 Y130.575 E.01517
G1 X166.925 Y147.234 E.70363
G1 X166.925 Y147.742 E.01517
G1 X149.758 Y130.575 E.72509
G1 X149.25 Y130.575 E.01517
G1 X166.925 Y148.25 E.74654
G1 X166.925 Y148.758 E.01517
G1 X148.742 Y130.575 E.768
G1 X148.234 Y130.575 E.01517
G1 X166.925 Y149.266 E.78945
G1 X166.925 Y149.774 E.01517
G1 X147.726 Y130.575 E.81091
G1 X147.218 Y130.575 E.01517
G1 X166.925 Y150.282 E.83236
G1 X166.925 Y150.79 E.01517
G1 X146.71 Y130.575 E.85381
G1 X146.202 Y130.575 E.01517
G1 X166.925 Y151.298 E.87527
G1 X166.925 Y151.806 E.01517
G1 X145.694 Y130.575 E.89672
G1 X145.186 Y130.575 E.01517
G1 X166.925 Y152.314 E.91818
G1 X166.925 Y152.822 E.01517
G1 X144.678 Y130.575 E.93963
G1 X144.17 Y130.575 E.01517
G1 X166.925 Y153.33 E.96108
G1 X166.925 Y153.838 E.01517
G1 X143.662 Y130.575 E.98254
G1 X143.154 Y130.575 E.01517
G1 X166.925 Y154.346 E1.00399
G1 X166.925 Y154.854 E.01517
G1 X142.646 Y130.575 E1.02545
G1 X142.138 Y130.575 E.01517
G1 X166.925 Y155.362 E1.0469
G1 X166.925 Y155.87 E.01517
G1 X141.63 Y130.575 E1.06836
G1 X141.123 Y130.575 E.01517
G1 X166.925 Y156.377 E1.08981
G1 X166.925 Y156.885 E.01517
G1 X140.615 Y130.575 E1.11126
G1 X140.107 Y130.575 E.01517
G1 X166.925 Y157.393 E1.13272
G1 X166.925 Y157.901 E.01517
G1 X139.599 Y130.575 E1.15417
G1 X139.091 Y130.575 E.01517
G1 X166.925 Y158.409 E1.17563
G1 X166.925 Y158.917 E.01517
M73 P2 R50
G1 X138.583 Y130.575 E1.19708
G1 X138.075 Y130.575 E.01517
G1 X166.925 Y159.425 E1.21853
G1 X166.417 Y159.425 E.01517
G1 X138.075 Y131.083 E1.19707
G1 X138.075 Y131.591 E.01517
M73 P3 R50
G1 X165.909 Y159.425 E1.17562
G1 X165.401 Y159.425 E.01517
G1 X138.075 Y132.099 E1.15417
G1 X138.075 Y132.607 E.01517
G1 X164.893 Y159.425 E1.13271
G1 X164.385 Y159.425 E.01517
G1 X138.075 Y133.115 E1.11126
G1 X138.075 Y133.623 E.01517
G1 X163.877 Y159.425 E1.0898
G1 X163.369 Y159.425 E.01517
G1 X138.075 Y134.131 E1.06835
G1 X138.075 Y134.639 E.01517
G1 X162.861 Y159.425 E1.0469
G1 X162.353 Y159.425 E.01517
G1 X138.075 Y135.147 E1.02544
G1 X138.075 Y135.654 E.01517
G1 X161.846 Y159.425 E1.00399
G1 X161.338 Y159.425 E.01517
G1 X138.075 Y136.162 E.98253
G1 X138.075 Y136.67 E.01517
G1 X160.83 Y159.425 E.96108
G1 X160.322 Y159.425 E.01517
G1 X138.075 Y137.178 E.93963
G1 X138.075 Y137.686 E.01517
G1 X159.814 Y159.425 E.91817
G1 X159.306 Y159.425 E.01517
G1 X138.075 Y138.194 E.89672
G1 X138.075 Y138.702 E.01517
G1 X158.798 Y159.425 E.87526
G1 X158.29 Y159.425 E.01517
G1 X138.075 Y139.21 E.85381
G1 X138.075 Y139.718 E.01517
G1 X157.782 Y159.425 E.83235
G1 X157.274 Y159.425 E.01517
G1 X138.075 Y140.226 E.8109
G1 X138.075 Y140.734 E.01517
G1 X156.766 Y159.425 E.78945
G1 X156.258 Y159.425 E.01517
G1 X138.075 Y141.242 E.76799
G1 X138.075 Y141.75 E.01517
G1 X155.75 Y159.425 E.74654
G1 X155.242 Y159.425 E.01517
G1 X138.075 Y142.258 E.72508
G1 X138.075 Y142.766 E.01517
G1 X154.734 Y159.425 E.70363
G1 X154.226 Y159.425 E.01517
G1 X138.075 Y143.274 E.68218
G1 X138.075 Y143.782 E.01517
G1 X153.718 Y159.425 E.66072
G1 X153.21 Y159.425 E.01517
G1 X138.075 Y144.29 E.63927
G1 X138.075 Y144.798 E.01517
G1 X152.702 Y159.425 E.61781
G1 X152.194 Y159.425 E.01517
G1 X138.075 Y145.306 E.59636
G1 X138.075 Y145.814 E.01517
G1 X151.686 Y159.425 E.5749
G1 X151.179 Y159.425 E.01517
G1 X138.075 Y146.321 E.55345
G1 X138.075 Y146.829 E.01517
G1 X150.671 Y159.425 E.532
G1 X150.163 Y159.425 E.01517
G1 X138.075 Y147.337 E.51054
G1 X138.075 Y147.845 E.01517
G1 X149.655 Y159.425 E.48909
G1 X149.147 Y159.425 E.01517
G1 X138.075 Y148.353 E.46763
G1 X138.075 Y148.861 E.01517
G1 X148.639 Y159.425 E.44618
G1 X148.131 Y159.425 E.01517
G1 X138.075 Y149.369 E.42473
G1 X138.075 Y149.877 E.01517
G1 X147.623 Y159.425 E.40327
G1 X147.115 Y159.425 E.01517
G1 X138.075 Y150.385 E.38182
G1 X138.075 Y150.893 E.01517
G1 X146.607 Y159.425 E.36036
G1 X146.099 Y159.425 E.01517
G1 X138.075 Y151.401 E.33891
G1 X138.075 Y151.909 E.01517
G1 X145.591 Y159.425 E.31746
G1 X145.083 Y159.425 E.01517
G1 X138.075 Y152.417 E.296
G1 X138.075 Y152.925 E.01517
G1 X144.575 Y159.425 E.27455
G1 X144.067 Y159.425 E.01517
G1 X138.075 Y153.433 E.25309
G1 X138.075 Y153.941 E.01517
G1 X143.559 Y159.425 E.23164
G1 X143.051 Y159.425 E.01517
G1 X138.075 Y154.449 E.21018
G1 X138.075 Y154.957 E.01517
G1 X142.543 Y159.425 E.18873
G1 X142.035 Y159.425 E.01517
G1 X138.075 Y155.465 E.16728
G1 X138.075 Y155.973 E.01517
G1 X141.527 Y159.425 E.14582
G1 X141.019 Y159.425 E.01517
G1 X138.075 Y156.481 E.12437
G1 X138.075 Y156.989 E.01517
G1 X140.511 Y159.425 E.10291
G1 X140.004 Y159.425 E.01517
G1 X138.075 Y157.496 E.08146
G1 X138.075 Y158.004 E.01517
G1 X139.496 Y159.425 E.06001
G1 X138.988 Y159.425 E.01517
G1 X138.075 Y158.512 E.03855
G1 X138.075 Y159.02 E.01517
G1 X138.64 Y159.586 E.02388
; stop printing object Cubo id:26242426 copy 0
;LAYER_CHANGE
;Z:0.4
;HEIGHT:0.2
;BEFORE_LAYER_CHANGE
;0.4

G92 E0 ;
;AFTER_LAYER_CHANGE
;0.4

;_SET_FAN_SPEED_CHANGING_LAYER
M204 S1000
; printing object Cubo id:26242426 copy 0
G1 E-7 F3600
;WIPE_START
G1 X138.075 Y159.02
G1 X138.075 Y158.512
G1 X138.988 Y159.425
G1 X139.496 Y159.425
G1 X138.075 Y158.004
G1 X138.075 Y157.496
G1 X140.004 Y159.425
G1 X140.511 Y159.425
G1 X138.075 Y156.989
G1 X138.075 Y156.481
G1 X140.328 Y158.734
;WIPE_END
G1 X153.677 Y159.218 Z1.1 F9000
G1 X166.793 Y159.693 Z1.1
G1 Z.4
G1 E7 F3600
;TYPE:Inner wall
;WIDTH:0.399999
G1 F4800
G1 X137.807 Y159.693 E.86063
G1 X137.807 Y130.307 E.8725
G1 X167.193 Y130.307 E.8725
G1 X167.193 Y159.693 E.8725
G1 X167.143 Y159.693 E.00148
G1 X167.375 Y159.747 F9000
;TYPE:Outer wall
G1 F1200
G1 X167.55 Y160.05
G1 X137.45 Y160.05 E.89371
G1 X137.45 Y129.95 E.89371
G1 X167.55 Y129.95 E.89371
G1 X167.55 Y159.7 E.88331
M73 P4 R50
G1 X167.482 Y160.032
G1 E-7 F3600
;WIPE_START
G1 F1200
G1 X151.551 Y159.886
;WIPE_END
G1 X164.898 Y159.36 Z1.1 F9000
G1 X165.515 Y159.336 Z1.1
G1 Z.4
G1 E7 F3600
;TYPE:Internal solid infill
G1 F4800
M106 S0
G1 X166.836 Y159.336 E.03921
G1 X166.836 Y158.015 E.03921
G1 X165.763 Y159.088 E.04506
G1 X167.086 Y157.31 F9000
;WIDTH:0.400648
G1 F4800
G1 X164.971 Y159.425 E.08896
G1 X164.465 Y159.425 E.01505
G1 X166.925 Y156.965 E.10348
G1 X166.925 Y156.459 E.01505
G1 X163.959 Y159.425 E.12476
G1 X163.453 Y159.425 E.01505
G1 X166.925 Y155.953 E.14605
G1 X166.925 Y155.447 E.01505
G1 X162.947 Y159.425 E.16733
G1 X162.441 Y159.425 E.01505
G1 X166.925 Y154.941 E.18861
G1 X166.925 Y154.436 E.01505
G1 X161.936 Y159.425 E.20989
G1 X161.43 Y159.425 E.01505
G1 X166.925 Y153.93 E.23117
G1 X166.925 Y153.424 E.01505
G1 X160.924 Y159.425 E.25245
G1 X160.418 Y159.425 E.01505
G1 X166.925 Y152.918 E.27373
G1 X166.925 Y152.412 E.01505
G1 X159.912 Y159.425 E.29502
G1 X159.406 Y159.425 E.01505
G1 X166.925 Y151.906 E.3163
G1 X166.925 Y151.4 E.01505
G1 X158.9 Y159.425 E.33758
G1 X158.394 Y159.425 E.01505
G1 X166.925 Y150.894 E.35886
G1 X166.925 Y150.388 E.01505
G1 X157.888 Y159.425 E.38014
G1 X157.382 Y159.425 E.01505
G1 X166.925 Y149.882 E.40142
G1 X166.925 Y149.377 E.01505
G1 X156.877 Y159.425 E.4227
G1 X156.371 Y159.425 E.01505
G1 X166.925 Y148.871 E.44399
G1 X166.925 Y148.365 E.01505
G1 X155.865 Y159.425 E.46527
G1 X155.359 Y159.425 E.01505
G1 X166.925 Y147.859 E.48655
G1 X166.925 Y147.353 E.01505
G1 X154.853 Y159.425 E.50783
G1 X154.347 Y159.425 E.01505
G1 X166.925 Y146.847 E.52911
G1 X166.925 Y146.341 E.01505
G1 X153.841 Y159.425 E.55039
G1 X153.335 Y159.425 E.01505
G1 X166.925 Y145.835 E.57167
G1 X166.925 Y145.329 E.01505
G1 X152.829 Y159.425 E.59295
G1 X152.323 Y159.425 E.01505
G1 X166.925 Y144.823 E.61424
G1 X166.925 Y144.318 E.01505
G1 X151.818 Y159.425 E.63552
G1 X151.312 Y159.425 E.01505
G1 X166.925 Y143.812 E.6568
G1 X166.925 Y143.306 E.01505
G1 X150.806 Y159.425 E.67808
G1 X150.3 Y159.425 E.01505
G1 X166.925 Y142.8 E.69936
G1 X166.925 Y142.294 E.01505
G1 X149.794 Y159.425 E.72064
G1 X149.288 Y159.425 E.01505
G1 X166.925 Y141.788 E.74192
G1 X166.925 Y141.282 E.01505
G1 X148.782 Y159.425 E.76321
G1 X148.276 Y159.425 E.01505
G1 X166.925 Y140.776 E.78449
G1 X166.925 Y140.27 E.01505
G1 X147.77 Y159.425 E.80577
G1 X147.264 Y159.425 E.01505
G1 X166.925 Y139.764 E.82705
G1 X166.925 Y139.258 E.01505
G1 X146.758 Y159.425 E.84833
G1 X146.253 Y159.425 E.01505
G1 X166.925 Y138.753 E.86961
G1 X166.925 Y138.247 E.01505
G1 X145.747 Y159.425 E.89089
G1 X145.241 Y159.425 E.01505
G1 X166.925 Y137.741 E.91218
G1 X166.925 Y137.235 E.01505
G1 X144.735 Y159.425 E.93346
G1 X144.229 Y159.425 E.01505
G1 X166.925 Y136.729 E.95474
G1 X166.925 Y136.223 E.01505
G1 X143.723 Y159.425 E.97602
G1 X143.217 Y159.425 E.01505
G1 X166.925 Y135.717 E.9973
G1 X166.925 Y135.211 E.01505
G1 X142.711 Y159.425 E1.01858
G1 X142.205 Y159.425 E.01505
G1 X166.925 Y134.705 E1.03986
G1 X166.925 Y134.199 E.01505
G1 X141.699 Y159.425 E1.06115
G1 X141.194 Y159.425 E.01505
G1 X166.925 Y133.694 E1.08243
G1 X166.925 Y133.188 E.01505
G1 X140.688 Y159.425 E1.10371
G1 X140.182 Y159.425 E.01505
G1 X166.925 Y132.682 E1.12499
G1 X166.925 Y132.176 E.01505
G1 X139.676 Y159.425 E1.14627
G1 X139.17 Y159.425 E.01505
G1 X166.925 Y131.67 E1.16755
G1 X166.925 Y131.164 E.01505
G1 X138.664 Y159.425 E1.18883
